X:1
T:Title
%%score { 1 | 2 }
L:1/8
Q:1/4=100
M:6/8
K:Ab
V:1 treble nm="Grand Piano"
V:2 bass 
V:1
 [CE]>[DF][CE] [CE][CA][Ec] | c>AB [CA]3 | [FA]>[EG][DF] [CE][CA]c | ddc B3 | c>_c=c eec | %5
w: William~Kirkpatrick * * * * *|||||
 [FB]>[FB][A,DF] [DFB]3 | [A,FA]>[A,EG][A,DF] [A,CE][CEA][EAc] | [EAc]>[DGB][DGB] [CEA]3 | %8
w: |||
 [EAc]3 [Ae]3 | [Ec]>[EB][EA] [FB][FA][DF] | [CE]3 A2 A | c>BA B3 | c3 e3 | %13
w: |||||
 [Ec]>[EB][EA] [FB][A,FA][A,DF] | [A,CE][CEA][EAc] [EAc]>[DGB][DGB] | [CEA]6 |] %16
w: |||
V:2
 [A,,A,]>[A,,A,][A,,A,] [A,,A,][A,,A,][A,,A,] | [E,A,E]>[E,A,C][E,G,D] [A,,A,]3 | %2
 [D,A,]>[D,A,][D,A,] [A,,A,][A,,A,][A,E] | [G,B,E][G,B,E][A,E] [E,G,E]3 | %4
 [A,E]>[A,=D][A,E] [A,CA][A,CA][A,EA] | [D,D]>[D,D]D, D,3 | D,>D,D, E,E,E, | E,>E,E, A,,3 | %8
 A,3 [A,C]3 | [A,,A,]>[B,,G,][C,A,] [D,D][D,D][D,A,] | [A,,A,]3 [A,CE]2 [A,CE] | %11
 [F,A,=D]>[F,A,D][F,A,D] [E,G,E]3 | [A,E]3 [A,CE]3 | [A,,A,]>[B,,G,][C,A,] [D,A,]D,D, | %14
 E,E,E, E,>E,E, | A,,6 |] %16

